X:221
T:Lady Charlotte Lenox’s Strathspey TS.221
M:C
L:1/8
Q:1/4=100
S:Thomas Sands’ MS,1810,Lincolnshire
R:strathspey
C:Labelled “3rd” on MS page
O:England;Lincolnshire
Z:vmp.Ruairidh Greig, 2011
K:F
A/B/|”As written”cF/cF/ cF/Ad/|AF AG/F/ EGG A/B/|cF/dF/ cF/Bd/|E/F/G G/A/B AFF:|
|:a/g/|f/g/a/g/ fc d/ffg/|f/g/a/g/ fd ef/ga/|f/g/a/g/ fc df/cA/|B/c/d G/A/BA2FFa/g/|
f/g/a/g/ fc df/fg/|f/g/a/g/fd eg/gb/|ab/ga/ fg/df/|B/c/d G/A/B AFF|]

